assets/Downcast face with sweat/Flat/downcast_face_with_sweat_flat.svg

<svg width="32" height="32" viewBox="0 0 32 32" fill="none" xmlns="http://www.w3.org/2000/svg">
<path d="M15.9989 29.9978C25.3333 29.9978 29.9978 23.7303 29.9978 15.9989C29.9978 8.26751 25.3333 2 15.9989 2C6.66443 2 2 8.26751 2 15.9989C2 23.7303 6.66443 29.9978 15.9989 29.9978Z" fill="#FFB02E"/>
<path d="M10.5 14.5C9.38448 14.5 8.99716 15.1709 8.94871 15.3162C8.77406 15.8402 8.20774 16.1233 7.6838 15.9487C7.15986 15.774 6.8767 15.2077 7.05134 14.6838C7.33623 13.8291 8.41558 12.5 10.5 12.5C12.5845 12.5 13.6638 13.8291 13.9487 14.6838C14.1234 15.2077 13.8402 15.774 13.3163 15.9487C12.7923 16.1233 12.226 15.8402 12.0513 15.3162C12.0029 15.1709 11.6156 14.5 10.5 14.5Z" fill="#402A32"/>
<path d="M21.5 14.5C20.3845 14.5 19.9972 15.1709 19.9487 15.3162C19.7741 15.8402 19.2077 16.1233 18.6838 15.9487C18.1599 15.774 17.8767 15.2077 18.0513 14.6838C18.3362 13.8291 19.4156 12.5 21.5 12.5C23.5845 12.5 24.6638 13.8291 24.9487 14.6838C25.1234 15.2077 24.8402 15.774 24.3163 15.9487C23.7923 16.1233 23.226 15.8402 23.0513 15.3162C23.0029 15.1709 22.6156 14.5 21.5 14.5Z" fill="#402A32"/>
<path d="M11.7584 24.7259C14.0992 22.3765 17.897 22.3684 20.2455 24.6997C20.6375 25.0888 21.2706 25.0865 21.6597 24.6946C22.0488 24.3026 22.0465 23.6694 21.6546 23.2804C18.5231 20.1717 13.4609 20.1836 10.3417 23.3142C9.95184 23.7055 9.953 24.3386 10.3442 24.7284C10.7355 25.1183 11.3686 25.1171 11.7584 24.7259Z" fill="#402A32"/>
<path d="M3 5C3 3.34315 4.34315 2 6 2C7.65685 2 9 3.34315 9 5V10C9 11.6569 7.65685 13 6 13C4.34315 13 3 11.6569 3 10V5Z" fill="#3F5FFF"/>
</svg>

<svg xmlns="http://www.w3.org/2000/svg" width="32" height="32" fill="none"><path fill="#FFB02E" d="M15.999 29.998c9.334 0 13.999-6.268 13.999-14 0-7.73-4.665-13.998-14-13.998C6.665 2 2 8.268 2 15.999c0 7.731 4.664 13.999 13.999 13.999Z"/><path fill="#402A32" d="M10.5 14.5c-1.116 0-1.503.67-1.551.816a1 1 0 0 1-1.898-.632c.285-.855 1.365-2.184 3.449-2.184 2.085 0 3.164 1.33 3.449 2.184a1 1 0 1 1-1.898.632c-.048-.145-.435-.816-1.551-.816ZM21.5 14.5c-1.116 0-1.503.67-1.551.816a1 1 0 1 1-1.898-.632c.285-.855 1.365-2.184 3.449-2.184 2.084 0 3.164 1.33 3.449 2.184a1 1 0 1 1-1.898.632c-.048-.145-.435-.816-1.551-.816ZM11.758 24.726a6.007 6.007 0 0 1 8.488-.026 1 1 0 0 0 1.409-1.42 8.007 8.007 0 0 0-11.313.034 1 1 0 1 0 1.416 1.412Z"/><path fill="#3F5FFF" d="M3 5a3 3 0 0 1 6 0v5a3 3 0 1 1-6 0V5Z"/></svg>
